X: 28828
T: My Silly Wisp Of A Minister
R: reel
M: 4/4
K: Adorian
G|:A2Bc dcBe|A2Bc dBGB|A2Bc dcBd|eABG A2A2:|
g2gea2ae|g2ag fdde|g2gea2ae|gedB A2AB:|

